X:1
T:6 Lieder, Op.13
T:Abschied
T:6 Lieder, Op.13
T:Josephine Lang
T:Christian Reinhold [Köstlin]
T:1. Abschied
T:Creative Commons copyright waiver (CC0 1.0 Universal)
T:Creative Commons copyright waiver (CC0 1.0 Universal)
C:Josephine Lang
Z:Christian Reinhold [Köstlin]
Z:Creative Commons copyright waiver (CC0 1.0 Universal)
L:1/8
M:2/4
K:F
V:1 treble nm="Stimme\nVoice"
V:1
 z | z4 | z4 | z4 | z2 z c | G3 A | B3 A | d c B3/2 G/ | A2 z F | (F2 B) F | F2 d z | B A G F | %12
w: ||||Sie|hat mich|still zum|Ab- schied an- ge-|blickt! vor|tie- * fer|Rüh- rung|konn- te sie Nichts|
 A2 G z | z G A c | G2 z C | A3/2 G/ A =B | c2 z c | (c2 d) c | (c2 d) z/ c/ | c B A G | %20
w: sa- gen,|dann hat sie|gleich den|Mond mir nach- ge-|schickt, den|gan- * zen|Schmerz * des|Ab- schied's nach- zu-|
 (B2 A/) z/ c | f2 _e2 | d2 z d | d c B A | G2 z G | B2 (A2 | (G2) F/) z/ F | B B A G | F2 EF | %29
w: tra- gen, dann|hat sie|gleich den|Mond mir nach- ge-|schickt, den|gan- zen|Schmerz * des|Ab- schied's nach- zu-|tra- * *|
 A2 G>F | F2 z2 | z4 | z4 | z4 | z4 |] %35
w: |gen!|||||

